X: 36556
T: Seven Stars, The
R: hornpipe
M: 4/4
K: Amajor
(3efg|a2a>e c2c>B|(3ABA c>A E2A>G|F2D>F (3BcB A>F|(3EFG (3ABc (3Bcd (3efg|
w:|A**E7|A|F#m**Bm|**E7
a2a>e c2c>B|(3ABA c>A E2A>G|F>DD>F (3BcB A>F|E2A>B A2:|:
w:A**E7|A|D**Bm|E7**A
B|c2c>d c>BA>B|c2c>d c2(3cBc|d2d>e d>cB>c|d2d>e (3gfe (3dcB|
w:|A|A|Bm|Bm**E7
c2c>d c>BA>B|c2c>d c2(3cBA|D2D>F (3BcB A>F|E2A>B A2:|
w:A||D**Bm|E7**A

